X:1
T:A minor Jeremiah Ingalls, 1805
T:Isaac Watts, 1724          86. 86. (C. M.) Chorus Anonymous     74. 75.
T:Soldier of the Cross
T:Transcribed from  Ingalls' Christian Harmony, 1805.
%%score [ 1 2 3 ]
L:1/8
Q:1/4=120
M:4/4
K:C
V:1 treble nm="Tr." snm="Tr."
V:2 treble-8 nm="T." snm="T."
V:3 bass nm="B." snm="B."
V:1
"^1. Am  I    a   sol – dier  of  the  cross?  A  follower  of       the    Lamb,  And shall I fear to own His cause,  Or  blush  to  speak   his     name?\n2. Must  I  be  car–ried  to  the   skies   On  flowery  beds  of  ease, While others fought to win the prize,  And sailed through bloody seas?" A4 | %1
 c2 c2 A2 c2 | B2 A2 e4 | e4 e2 f2 | ed cB A4 | A4 c2 c2 | A2 c2 B2 A2 | e4 e4 | e2 f2 ed cB | A8 | %10
"^O!              glo – ry,    Hal – le – lu – jah, Praise ye my God, _____   O!      glo – ry,  Hal – le  –  lu  –  jah,    love  and  serve  the   Lord." (3(A2 B2 c2) d3 d | %11
 e2 d2 c4 | B4 A4 | B2 A2 ^G4- | G4 e4 | d3 d e2 d2 | c4 B4 | cB A2 ^G2 G2 | A8 |] %19
V:2
"^3. Are there no foes for me to  fight?  Must  I  not  stem  the   flood?   Is this dark world a friend to grace,  To  help  me    on        to      God?\n4. Sure, I must fight if I would reign  In–crease  my  courage,  Lord.  I'll  bear  the  toil,  endure the pain,  Sup –por –ted  by    thy    word." A4 | %1
 e2 e2 c2 e2 | d2 dc B4 | B4 c2 A2 | BA ^G2 A4 | c4 e2 e2 | c2 e2 d2 dc | B4 B4 | c2 A2 BA ^G2 | %9
 A8 | %10
"^O!              glo – ry,    Hal – le – lu – jah, Praise ye my God, _____   O!      glo – ry,  Hal – le  –  lu  –  jah,    love  and  serve  the   Lord." (c3 B) A3 A | %11
 c2 d2 e4 | d4 c4 | d2 c2 B4- | B4 (c3 B) | A3 A c2 d2 | e4 d4 | ed c2 B2 B2 | A8 |] %19
V:3
"^5. Thy saints, in all this glorious war  Shall conquer, though they die;  They  see  the  triumph from afar  By  faith's  dis – cer – rning  eye.\n6. When that illustrious day shall rise  And  all  thine  ar–mies  shine  In robes of victory through the skies,  The   glo – ry  shall   be  thine." A,4 | %1
 A,2 A,2 A,2 A,2 | D,2 D,2 E,4 | E,4 C,2 D,2 | E,2 E,2 A,,4 | A,4 A,2 A,2 | A,2 A,2 D,2 D,2 | %7
 E,4 E,4 | C,2 D,2 E,2 E,2 | A,,8 | A,4 D,3 D, | C,2 G,2 C4 | %12
"^_______________________________________\nBased on a folk hymn (Jackson 1952, No. 64)." G,4 A,4 | %13
 G,2 A,2 E,4- | E,4 A,4 | D,3 D, C,2 G,2 | C4 G,4 | A,2 A,2 E,2 E,2 | A,,8 |] %19

